X: 168
T:The Bog of Allen
M:2/2
L:1/8
C:Ed Reavy
S:The Collected Compostions of Ed Reavy
R:Reel
N:Mentioned eloquently in Joyce's short story,
N:"The Dead" (in Dubliners). This desolate region reminds us of Yeats'
N:line "the drifting, indefinite bitterness of life" Ed has always felt
N:that far too much is made of Ireland's greenery and not enough said
N:of her terrible greyness. Ed has lived to see the whole of Ireland,
N:and he has tried to get as much of it as he could into his own tunes.
Z:Joseph Reavy
K:G
||:dc|BG (3AGF G=FDE|=F2  AF ^FDCB,|DG (3AGF GABc|dgfa gfdc|BG (3GF G=F
DE | [A,2=F2] AF ^FDCB,|DG (3AGF GABc |dgfd c2:|
||:Bc|dg (3gfg bgag|dggf dcBc| dg (3gfg ag (3gfg|defd c2 Bc|
dg (3gfg bgag|dggf dcBA|GABc defa|gefd c2:||

